svg/color/hwhype.svg

<svg width="80" height="80" viewBox="0 0 80 80" fill="none" xmlns="http://www.w3.org/2000/svg">
<g clip-path="url(#clip0_487_217)">
<path d="M80 40C80 62.0914 62.0914 80 40 80C17.9086 80 0 62.0914 0 40C0 17.9086 17.9086 0 40 0C62.0914 0 80 17.9086 80 40Z" fill="#051212"/>
<path d="M6 40C5.99999 49.2047 9.68264 57.5251 15.6143 63.6338L16.1953 64.2178C22.2904 70.2021 30.4269 73.772 39.1543 73.9893L40 74C48.7632 74 56.9828 70.6168 63.208 64.7891L63.8037 64.2178C70.075 58.0608 74 49.5015 74 40C74 30.4985 70.075 21.9393 63.8037 15.7822L63.208 15.2109C56.9828 9.38357 48.7632 6.00001 40 6L40 5L40.8721 5.01075C49.5682 5.2274 57.6921 8.67843 63.8906 14.4805L64.5049 15.0684C70.7562 21.2058 74.7451 29.6684 74.9883 39.0859L75 40C75 49.4777 71.2063 58.0442 65.1025 64.3301L64.5049 64.9307C58.0316 71.2864 49.3152 75 40 75L39.1289 74.9893C30.1418 74.7655 21.7662 71.0878 15.4951 64.9307C9.04246 58.5954 4.99999 49.7834 5 40L5.01171 39.0859C5.25484 29.6684 9.24405 21.2058 15.4951 15.0684L16.1084 14.4805C22.5136 8.48462 30.9754 5.0001 40 5L40 6C30.9535 6.0001 22.4868 9.60501 16.1953 15.7822L15.6143 16.3662C9.6827 22.475 6 30.7954 6 40Z" fill="url(#paint0_linear_487_217)"/>
<path d="M0.999996 40C0.999995 50.5586 5.22475 60.1027 12.0283 67.1094L12.6943 67.7793C19.6852 74.6431 29.0182 78.739 39.0293 78.9883L40 79C50.0524 79 59.4808 75.1189 66.6211 68.4346L67.3047 67.7793C74.4978 60.7172 79 50.8991 79 40C79 29.101 74.4978 19.2829 67.3047 12.2207L66.6211 11.5654C59.4808 4.88149 50.0524 1.00001 40 1L40 4.13248e-06L40.9961 0.0126995C50.9348 0.260175 60.2196 4.20386 67.3037 10.835L68.0049 11.5068C75.1492 18.521 79.7084 28.1922 79.9863 38.9551L80 40C80 50.8317 75.6642 60.6218 68.6885 67.8057L68.0049 68.4932C60.6068 75.7566 50.6458 80 40 80L39.0039 79.9873C28.7333 79.7314 19.1609 75.5295 11.9941 68.4932C4.61966 61.2528 -5.10996e-06 51.1811 -4.13248e-06 40L0.0136678 38.9551C0.2916 28.1923 4.85013 18.521 11.9941 11.5068L12.6953 10.835C20.0155 3.98252 29.6861 0.000110042 40 4.13248e-06L40 1C29.6226 1.00011 19.9106 5.13552 12.6943 12.2207L12.0283 12.8906C5.22481 19.8974 0.999997 29.4415 0.999996 40Z" fill="#21F1A6"/>
<path d="M75 40C75 30.5317 71.2155 21.9711 65.1025 15.6758L64.5039 15.0742C58.2202 8.90471 49.8453 5.23413 40.8701 5.01074L40 5C30.9887 5.00001 22.5294 8.47715 16.1123 14.4844L15.4971 15.0742C9.03326 21.4204 5 30.2266 5 40C5 49.7731 9.03264 58.5796 15.4961 64.9258H15.4971C21.9837 71.2941 30.6979 75 40 75V79L39.0283 78.9883C29.3382 78.7469 20.2859 74.9009 13.3789 68.4355L12.6953 67.7803C5.50496 60.7208 1 50.9016 1 40C1 29.439 5.2279 19.8939 12.0293 12.8896L12.6953 12.2197C19.9084 5.13769 29.6202 1.00002 40 1L40.9707 1.01172C50.9848 1.26108 60.3179 5.35899 67.3057 12.2197C74.4958 19.2791 79 29.0985 79 40C79 50.9015 74.4958 60.7208 67.3057 67.7803L66.6221 68.4355C59.4849 75.1168 50.0561 78.9999 40 79V75C49.3031 74.9999 58.0176 71.2952 64.5039 64.9268L65.1025 64.3242C71.2154 58.0288 75 49.4682 75 40Z" fill="url(#paint1_linear_487_217)"/>
<path d="M62.9984 39.6293C63.0395 43.3318 62.2663 46.8698 60.7477 50.25C58.5789 55.0633 53.3795 58.999 48.6315 54.8096C44.7593 51.395 44.0409 44.4631 38.2395 43.4484C30.5634 42.5159 30.3787 51.4362 25.3639 52.4441C19.7745 53.5823 17.9205 44.1614 18.0026 39.883C18.0847 35.6045 19.2204 29.5913 24.0778 29.5913C29.6672 29.5913 30.0434 38.0728 37.138 37.6135C44.1641 37.1335 44.2872 28.3091 48.8778 24.5312C52.8389 21.2675 57.498 23.6604 59.8308 27.5892C61.9927 31.2232 62.9437 35.4879 62.9915 39.6293H62.9984Z" fill="#21F1A6"/>
</g>
<defs>
<linearGradient id="paint0_linear_487_217" x1="3.41145" y1="40.9012" x2="69.0044" y2="40.9012" gradientUnits="userSpaceOnUse">
<stop stop-color="#21F1A6" stop-opacity="0.6"/>
<stop offset="1" stop-color="#21F1A6" stop-opacity="0.2"/>
</linearGradient>
<linearGradient id="paint1_linear_487_217" x1="80.7701" y1="38.9958" x2="7.68077" y2="38.9958" gradientUnits="userSpaceOnUse">
<stop stop-color="#21F1A6"/>
<stop offset="1" stop-color="#21F1A6" stop-opacity="0.2"/>
</linearGradient>
<clipPath id="clip0_487_217">
<rect width="80" height="80" fill="white"/>
</clipPath>
</defs>
</svg>

<svg xmlns="http://www.w3.org/2000/svg" width="80" height="80" fill="none" viewBox="0 0 80 80"><g clip-path="url(#hwhype_svg-a)"><path fill="#051212" d="M80 40c0 22.091-17.909 40-40 40S0 62.091 0 40 17.909 0 40 0s40 17.909 40 40"/><path fill="url(#hwhype_svg-b)" d="M6 40c0 9.205 3.683 17.525 9.614 23.634l.581.584c6.095 5.984 14.232 9.554 22.96 9.771L40 74c8.763 0 16.983-3.383 23.208-9.21l.596-.572C70.075 58.06 74 49.5 74 40s-3.925-18.06-10.196-24.218l-.596-.571C56.983 9.384 48.763 6 40 6V5l.872.01c8.696.217 16.82 3.668 23.019 9.47l.614.588c6.251 6.138 10.24 14.6 10.483 24.018L75 40c0 9.478-3.794 18.044-9.897 24.33l-.598.6C58.032 71.287 49.315 75 40 75l-.871-.01c-8.987-.224-17.363-3.902-23.634-10.06C9.042 58.596 5 49.784 5 40l.012-.914c.243-9.418 4.232-17.88 10.483-24.018l.613-.588C22.514 8.485 30.975 5 40 5v1c-9.047 0-17.513 3.605-23.805 9.782l-.58.584C9.682 22.475 6 30.796 6 40"/><path fill="#21F1A6" d="M1 40c0 10.559 4.225 20.103 11.028 27.11l.666.67c6.991 6.863 16.324 10.959 26.335 11.208L40 79c10.052 0 19.48-3.881 26.621-10.565l.684-.656C74.498 60.717 79 50.9 79 40s-4.502-20.717-11.695-27.78l-.684-.655C59.481 4.881 50.052 1 40 1V0l.996.013c9.939.247 19.224 4.19 26.308 10.822l.7.672c7.145 7.014 11.704 16.685 11.982 27.448L80 40c0 10.832-4.336 20.622-11.311 27.806l-.684.687C60.607 75.757 50.645 80 40 80l-.996-.013c-10.27-.256-19.843-4.457-27.01-11.494C4.62 61.253 0 51.181 0 40l.014-1.045c.278-10.763 4.836-20.434 11.98-27.448l.701-.672C20.015 3.983 29.686 0 40 0v1C29.623 1 19.91 5.136 12.694 12.22l-.666.67C5.225 19.898 1 29.443 1 40"/><path fill="url(#hwhype_svg-c)" d="M75 40c0-9.468-3.784-18.029-9.897-24.324l-.6-.602C58.22 8.904 49.846 5.234 40.87 5.011L40 5c-9.011 0-17.47 3.477-23.888 9.484l-.615.59C9.033 21.42 5 30.227 5 40s4.033 18.58 10.496 24.926h.001C21.984 71.294 30.697 75 40 75v4l-.972-.012c-9.69-.241-18.742-4.087-25.65-10.552l-.683-.656C5.505 60.72 1 50.902 1 40c0-10.561 4.228-20.106 11.03-27.11l.665-.67C19.908 5.138 29.62 1 40 1l.97.012c10.015.25 19.348 4.347 26.336 11.208C74.496 19.28 79 29.099 79 40s-4.504 20.72-11.694 27.78l-.684.656C59.485 75.116 50.056 79 40 79v-4c9.303 0 18.018-3.705 24.504-10.073l.599-.603C71.215 58.03 75 49.468 75 40"/><path fill="#21F1A6" d="M62.998 39.63c.041 3.702-.732 7.24-2.25 10.62-2.17 4.813-7.368 8.749-12.116 4.56-3.873-3.415-4.591-10.347-10.392-11.362-7.677-.932-7.861 7.988-12.876 8.996-5.59 1.138-7.443-8.283-7.361-12.561s1.217-10.292 6.075-10.292c5.59 0 5.965 8.482 13.06 8.023 7.026-.48 7.15-9.305 11.74-13.083 3.96-3.264 8.62-.87 10.953 3.058 2.162 3.634 3.113 7.899 3.16 12.04z"/></g><defs><linearGradient id="hwhype_svg-b" x1="3.411" x2="69.004" y1="40.901" y2="40.901" gradientUnits="userSpaceOnUse"><stop stop-color="#21F1A6" stop-opacity=".6"/><stop offset="1" stop-color="#21F1A6" stop-opacity=".2"/></linearGradient><linearGradient id="hwhype_svg-c" x1="80.77" x2="7.681" y1="38.996" y2="38.996" gradientUnits="userSpaceOnUse"><stop stop-color="#21F1A6"/><stop offset="1" stop-color="#21F1A6" stop-opacity=".2"/></linearGradient><clipPath id="hwhype_svg-a"><path fill="#fff" d="M0 0h80v80H0z"/></clipPath></defs></svg>
